X: 1
T:Fanlight Fanny
M:2/2
L:1/8
C:George Formby, Fred E Cliffe, Harry Gifford & Clinton Ford
Z: "Ally" <ally.belfagan:virgin.net> tradtunes 2001-03-08
K:F Maj
z8 \
| "Dm"d2 dc- "Am"c A3 | "Dm"d2 dc- "Am"c A3 | "Dm"A2 A2 F2 G2 |
| A8 "C7"c2 c2 "F#dim"c2 c2 | "C7"c4 "C7+"^G4 | F8 :|
| z4 z2 F2 | "F7" F2 G2 G2 ^G2 | A2 d2  d2 A2 | "Bb6"G8- | G4 z2 G2 |
| "G7" G2 A2 A2 B2 | =B2 e2 e2 G2 | "C7" c8- | c4 z2 "A7" A2 |
|: "Dm"D2 F2 A3 A | d2 c2 A3 A | D2 F2 AA^GA | d c2 A-A4 |
| "C7"c2 c2 c c2 c | d2 c2 _A2 G2 | "F"F8 | "Bb7 A7" z8 :|
| z4 z A A2 | "Dm" AAA"E"^G-G3 G | "Dm" AAA"E"^G-G3 A | "Dm"d2 A2 F2 D2 |
| "A"E8 | "C7"G4"Ab7" _A4 | "Dm7"=A4 "G7"=B4 | "C7"cdec _e2 dc- |
| c4"Bb7"z2 "A7"A2 | "Dm"D2 F2 A3 A | d2 c2 A3 A | D2 F2 AA^GA |
| d c2 A-A4 | "C7"c2 c2 c c2 c | d2 c2 _A2 G2 | "F"F8 | "Bb7 A7" z8 |]
